src/icons/svg/show.svg

<?xml version="1.0" encoding="UTF-8"?>
<svg width="18px" height="9px" viewBox="0 0 18 9" version="1.1" xmlns="http://www.w3.org/2000/svg" xmlns:xlink="http://www.w3.org/1999/xlink">
    <!-- Generator: Sketch 54.1 (76490) - https://sketchapp.com -->
    <title>不显示</title>
    <desc>Created with Sketch.</desc>
    <defs>
        <polygon id="path-1" points="0 3.43520563e-05 17.9861187 3.43520563e-05 17.9861187 8.371242 0 8.371242"></polygon>
    </defs>
    <g id="页面1" stroke="none" stroke-width="1" fill="none" fill-rule="evenodd">
        <g id="M端-登录" transform="translate(-327.000000, -259.000000)">
            <g id="编组" transform="translate(22.000000, 140.000000)">
                <g id="输入框文本" transform="translate(0.000000, 59.000000)">
                    <g id="不显示" transform="translate(305.000000, 60.000000)">
                        <mask id="mask-2" fill="white">
                            <use xlink:href="#path-1"></use>
                        </mask>
                        <g id="Clip-2"></g>
                        <path d="M17.873478,1.036692 C18.067158,0.747432 18.002718,0.362412 17.744238,0.135072 C17.454978,-0.089748 17.070138,-0.025128 16.842618,0.264132 C16.811658,0.295272 13.241358,4.508892 8.993898,4.508892 C4.878558,4.511412 1.147878,0.266832 1.116918,0.233172 C0.892098,-0.025128 0.473598,-0.056088 0.215118,0.168552 C-0.043182,0.393372 -0.074142,0.811872 0.150678,1.070352 C0.215118,1.165932 0.987678,2.033892 2.209698,3.000132 L0.569178,4.705272 C0.310698,4.963572 0.344358,5.379552 0.600138,5.606892 C0.664758,5.735952 0.824958,5.800752 0.985158,5.800752 C1.145358,5.800752 1.305378,5.735952 1.434618,5.606892 L3.204378,3.772512 C4.041378,4.351392 5.038578,4.899132 6.131538,5.283972 L5.457258,7.567812 C5.361678,7.921692 5.552838,8.275572 5.906718,8.371332 L6.100398,8.371332 C6.389838,8.371332 6.648138,8.177472 6.712758,7.888032 L7.387038,5.604372 C7.901118,5.699952 8.448858,5.764572 8.993898,5.764572 C9.539118,5.764572 10.086858,5.699952 10.600938,5.604372 L11.275218,7.857072 C11.339838,8.146512 11.629278,8.340372 11.887578,8.340372 C11.952198,8.340372 12.016638,8.340372 12.047598,8.309232 C12.401658,8.213652 12.595518,7.859772 12.497238,7.505712 L11.822958,5.252832 C12.915738,4.867992 13.913118,4.320252 14.750118,3.741552 L16.486218,5.542272 C16.615278,5.671512 16.775478,5.735952 16.935678,5.735952 C17.095878,5.735952 17.256078,5.671512 17.385318,5.542272 C17.643618,5.283972 17.643618,4.899132 17.416098,4.640652 L15.775758,2.935512 C17.100918,1.969272 17.873478,1.036692 17.873478,1.036692" id="Fill-1" fill="#BBBBBB" mask="url(#mask-2)"></path>
                    </g>
                </g>
            </g>
        </g>
    </g>
</svg>

<svg width="18" height="9" xmlns="http://www.w3.org/2000/svg" xmlns:xlink="http://www.w3.org/1999/xlink"><defs><path id="a" d="M0 0h17.986v8.371H0z"/></defs><g fill="none" fill-rule="evenodd"><mask id="b" fill="#fff"><use xlink:href="#a"/></mask><path d="M17.873 1.037a.692.692 0 00-.129-.902c-.289-.225-.674-.16-.901.13-.031.03-3.602 4.244-7.85 4.244C4.88 4.51 1.149.267 1.118.233A.654.654 0 00.215.17a.653.653 0 00-.064.901c.064.096.837.964 2.059 1.93L.57 4.705a.623.623 0 00.03.902c.065.129.225.194.385.194s.32-.065.45-.194l1.77-1.834a12.523 12.523 0 002.927 1.511l-.675 2.284a.642.642 0 00.45.803H6.1c.29 0 .548-.194.613-.483l.674-2.284a8.87 8.87 0 001.607.16c.545 0 1.093-.064 1.607-.16l.674 2.253c.065.29.354.483.613.483.064 0 .129 0 .16-.03a.64.64 0 00.45-.804l-.675-2.253a12.533 12.533 0 002.927-1.511l1.736 1.8c.13.13.29.194.45.194.16 0 .32-.064.45-.194a.65.65 0 00.03-.901l-1.64-1.705c1.325-.967 2.097-1.9 2.097-1.9" fill="#BBB" mask="url(#b)"/></g></svg>
